X: 12
T:Under The Double Eagle
M:4/4
L:1/8
C:
K:G
DEF|G2DGB2GB|e2d2B2BB|d2c2A2d2|B4G2D2|G2DGB2GB|e2d2B2BB|d2c2A2d2|G6d2|e2
Bed2BG|D2D2D2GB|E2D2G2d2|F6d2|e2ced2cA|F6FE|D2F2A2d2|B6d2|e2Bed2BG|D6GBE
2D2|G2g2gggg|g2g2f2e2|ed^cdedBG|D2c2B2A2|G4||
